X:14
T: A Savanyú tizenhat szél gatyája
Q: 1/4=100
L:1/4
K:F
G/A/ B c | d/d/G/c/ | B/A/ G z |
w: A Sa-va-nyú ti-zen-hat szé' ga-tyá-ja
d/d/ c g | f/d/ c d | B/A/ B z |
w:Meg-a-kadt a tüs-ke-bo-kor á-gá-bó.
d/d/ c g | f/d/ c d | B/A/ G z |
w: Tüs-ke-bo-kor, e-reszd el a ga-tyá-mot,
G/A/ B c | d/d/G/c/ | B/A/ G z |
w: Ha ú-ré vagy, ha pa-rasz-té, le-vág-lok.
W:s A Savanyu nem uri családból való,
W: Nem kell neki selyem bársonytakaró,
W: Nem kell neki az éddesanyja dunyhájó,
W: Beéri ja tizenhat szé' gatyájó.
W:
W:A Savanyu este jevedd vacsorát,
W: Kilenc zsandár benyitotta ajtaját.
W: Ezüstkalán fényesedik asztalán.
W: A Savanyu kijugrott az ablakán.

